X: 37
M:2/4
L:1/16
K:G
v.dc|\
(BG).F.G BGAc | BGDC DB,DC  | B,G,B,D ECEG | FDEF GBdc |
k((3gfg)|\
.b(gfg) (eg)(dg)|(ca)(Bg) (Af)(Ge)|(Fd)(Ec) (DB)(CA)|(B,G)(A,F) G,B,DF|


